other/dmi.svg

<svg width="48" height="48" version="1.1" viewBox="0 0 48 48" xmlns="http://www.w3.org/2000/svg">
 <g fill="none" stroke="#fff" stroke-linecap="round">
  <g stroke-linejoin="round">
   <path d="m10.489 37.274h27.023"/>
   <path d="m10.489 42.5h27.023"/>
   <path d="m11.217 34.831s-11.566-11.788-0.78804-13.693"/>
   <path d="m17.491 34.831s-9.3248-10.064-6.4508-15.803c2.8739-5.7391 11.009-2.7485 12.959 0.59016"/>
   <path d="m20.936 16.961s-0.10845-3.2801 3.064-3.2801v-2.1511"/>
   <path d="m24 8.5403v-3.0403"/>
   <path d="m19.404 9.9983h3.0207"/>
   <path d="m37.511 39.887h-27.023"/>
   <path d="m36.783 34.831s11.566-11.788 0.78804-13.693"/>
   <path d="m30.509 34.831s9.3248-10.064 6.4508-15.803c-2.8739-5.7391-11.009-2.7485-12.959 0.59016"/>
   <path d="m27.064 16.961s0.10845-3.2801-3.064-3.2801v-2.1511"/>
   <path d="m24 8.5403v-3.0403"/>
   <path d="m28.596 9.9983h-3.0207"/>
  </g>
  <path d="m24 19.618v15.213"/>
 </g>
</svg>

<svg xmlns="http://www.w3.org/2000/svg" viewBox="0 0 48 48"><defs><style>.a{fill:none;stroke:#fff;stroke-linecap:round;stroke-linejoin:round;}</style></defs><path class="a" d="M10.489,37.274H37.512"/><path class="a" d="M10.489,42.5H37.512"/><path class="a" d="M11.217,34.831S-.349,23.043,10.429,21.138"/><path class="a" d="M17.491,34.831S8.1662,24.767,11.04,19.028s11.009-2.7485,12.959.59"/><path class="a" d="M20.936,16.961s-.1084-3.28,3.064-3.28V11.53"/><path class="a" d="M24,8.54V5.5"/><path class="a" d="M19.404,9.9983h3.0207"/><path class="a" d="M37.511,39.887H10.488"/><path class="a" d="M36.783,34.831s11.566-11.788.788-13.693"/><path class="a" d="M30.509,34.831S39.8338,24.767,36.96,19.028s-11.009-2.7485-12.959.59"/><path class="a" d="M27.064,16.961s.1084-3.28-3.064-3.28V11.53"/><path class="a" d="M24,8.54V5.5"/><path class="a" d="M28.596,9.9983H25.5753"/><path class="a" d="M24,19.618V34.831"/></svg>
